svg/300/sharp/stack_off.svg

<svg xmlns="http://www.w3.org/2000/svg" width="48" height="48" viewBox="0 -960 960 960"><path d="m859.999-192.925-45.384-45.384v-336.306H478.309l-45.384-45.384h427.074v427.074ZM574.615-693.076v-121.539H238.309l-45.384-45.384h427.074v166.923h-45.384Zm71.847 286.614ZM385.385-145.385h364.001L385.385-509.386v364.001Zm441.999 77.998L794.769-100H340.001v-454.768L145.385-749.386v364.001h121.539v45.384H100.001v-454.768l-32.614-32.615L100-859.999l759.998 759.998-32.615 32.614ZM567.385-327.385Z"/></svg>

<svg xmlns="http://www.w3.org/2000/svg" width="48" height="48" viewBox="0 -960 960 960"><path d="m860-192.93-45.39-45.38v-336.3h-336.3L432.93-620H860v427.07ZM574.61-693.08v-121.53h-336.3L192.93-860H620v166.92h-45.39Zm71.85 286.62ZM385.39-145.39h364l-364-364v364Zm441.99 78L794.77-100H340v-454.77L145.39-749.39v364h121.53V-340H100v-454.77l-32.61-32.61L100-860l760 760-32.62 32.61Zm-259.99-260Z"/></svg>
